svg/white/gari.svg

<svg xmlns="http://www.w3.org/2000/svg" width="450" height="450" fill="none" viewBox="0 0 450 450"><path fill="#fff" d="M373.729 259.868v140.531c-12.934 14.369-29.889 25.29-51.155 32.474-21.554 7.471-44.832 11.207-70.122 11.207q-68.54.001-114.665-43.969c-23.566-22.417-37.935-48.855-43.395-79.318H76V296.94h16.094c-.288-1.724-.288-3.736-.288-5.748 0-2.586 0-5.173.288-7.758H76V259.58h18.967c5.46-29.313 18.966-54.889 40.808-76.731 11.783-12.069 25.002-21.553 39.371-28.45-3.736-6.036-6.321-12.645-8.333-19.83-.863-3.736-1.437-7.472-2.012-11.496-.288-2.873-.288-6.035-.288-9.196 0-2.873.288-5.748.575-8.334.288-2.012 1.437-3.161 3.161-3.736s3.449-.287 4.599 1.149c2.586 2.3 5.173 4.599 7.759 6.611 1.15 1.149 2.299 2.01 3.448 2.873 1.724.863 4.024.576 4.887-1.149.573-.575.573-1.438.573-2.012 0-2.587-.286-4.886-.286-7.472v-1.436c.286-3.736.286-7.473.574-11.209.863-9.772 2.587-19.542 5.46-29.026a100.8 100.8 0 0 1 11.209-24.714c4.023-6.036 8.908-11.784 14.944-16.381 6.034-4.885 12.931-8.622 20.403-11.496 1.437-.286 3.161-.862 4.599-1.437 1.149-.288 2.298 0 3.161.863.576.574 1.149 1.724.861 2.586-.573 2.011-.861 3.736-1.149 5.747-.575 2.588-1.148 5.461-1.436 8.334-.288 2.587-.575 5.174-.575 7.76-.288 2.587-.288 5.173-.288 7.472.288 6.036 1.151 11.782 2.875 17.242a34.9 34.9 0 0 0 5.173 10.348c2.011 2.297 4.023 4.309 6.896 6.034 2.588 1.436 5.749 2.299 8.622 2.011 3.16 0 5.748-1.149 8.335-2.585 2.873-1.724 5.46-4.024 7.47-6.899.863-1.149 1.439-2.298 2.3-3.448.288-.288.288-.574.575-.574 1.149-1.724 3.736-1.724 4.885 0l3.449 6.034c2.587 4.887 4.599 10.347 5.748 15.806.287 2.012.863 4.311.863 6.323s.286 3.736.286 5.461c-.286 6.321-1.149 12.645-3.449 18.393-.287 1.148-.573 2.011-.287 3.16.575 2.873 3.45 4.312 6.035 3.449l1.724-.863c2.012-1.149 3.737-2.586 5.463-4.31.287-.288.863-.575 1.434-.575.863 0 1.435.575 1.435 1.436v4.024c0 1.437-.284 2.875-.284 4.024-.288 2.873-.575 5.46-1.151 8.046-1.434 5.748-3.448 11.783-6.034 17.244 22.989 8.046 42.533 21.554 59.2 40.232l-46.553 45.407c-19.545-21.266-44.547-31.899-74.435-31.899-26.151 0-47.419 8.909-64.086 26.151-8.908 9.197-15.519 19.542-19.541 31.038h24.714v23.854h-29.889c-.286 2.585-.286 5.172-.286 7.758 0 2.012 0 3.736.286 5.748h29.889v23.853h-25.865c4.024 12.933 10.921 24.141 20.98 33.911 16.955 16.669 39.657 25.29 67.822 25.29 26.151 0 45.407-4.885 57.477-14.369v-43.683h-57.765v-62.074z"/></svg>

<svg width="450" height="450" viewBox="0 0 450 450" fill="none" xmlns="http://www.w3.org/2000/svg">
<path d="M373.729 259.868V400.399C360.795 414.768 343.84 425.689 322.574 432.873C301.02 440.344 277.742 444.08 252.452 444.08C206.759 444.08 168.537 429.425 137.787 400.111C114.221 377.694 99.852 351.256 94.392 320.793H76V296.94H92.094C91.806 295.216 91.806 293.204 91.806 291.192C91.806 288.606 91.806 286.019 92.094 283.434H76V259.58H94.967C100.427 230.267 113.933 204.691 135.775 182.849C147.558 170.78 160.777 161.296 175.146 154.399C171.41 148.363 168.825 141.754 166.813 134.569C165.95 130.833 165.376 127.097 164.801 123.073C164.513 120.2 164.513 117.038 164.513 113.877C164.513 111.004 164.801 108.129 165.088 105.543C165.376 103.531 166.525 102.382 168.249 101.807C169.973 101.232 171.698 101.52 172.848 102.956C175.434 105.256 178.021 107.555 180.607 109.567C181.757 110.716 182.906 111.577 184.055 112.44C185.779 113.303 188.079 113.016 188.942 111.291C189.515 110.716 189.515 109.853 189.515 109.279C189.515 106.692 189.229 104.393 189.229 101.807V100.371C189.515 96.635 189.515 92.898 189.803 89.162C190.666 79.39 192.39 69.62 195.263 60.136C197.851 51.515 201.587 43.182 206.472 35.422C210.495 29.386 215.38 23.638 221.416 19.041C227.45 14.156 234.347 10.419 241.819 7.545C243.256 7.259 244.98 6.68302 246.418 6.10802C247.567 5.82002 248.716 6.108 249.579 6.971C250.155 7.545 250.728 8.69499 250.44 9.55699C249.867 11.568 249.579 13.293 249.291 15.304C248.716 17.892 248.143 20.765 247.855 23.638C247.567 26.225 247.28 28.812 247.28 31.398C246.992 33.985 246.992 36.571 246.992 38.87C247.28 44.906 248.143 50.652 249.867 56.112C251.016 59.849 252.74 63.297 255.04 66.46C257.051 68.757 259.063 70.769 261.936 72.494C264.524 73.93 267.685 74.793 270.558 74.505C273.718 74.505 276.306 73.356 278.893 71.92C281.766 70.196 284.353 67.896 286.363 65.021C287.226 63.872 287.802 62.723 288.663 61.573C288.951 61.285 288.951 60.999 289.238 60.999C290.387 59.275 292.974 59.275 294.123 60.999C295.272 63.011 296.423 65.021 297.572 67.033C300.159 71.92 302.171 77.38 303.32 82.839C303.607 84.851 304.183 87.15 304.183 89.162C304.183 91.174 304.469 92.898 304.469 94.623C304.183 100.944 303.32 107.268 301.02 113.016C300.733 114.164 300.447 115.027 300.733 116.176C301.308 119.049 304.183 120.488 306.768 119.625C307.344 119.337 307.917 119.049 308.492 118.762C310.504 117.613 312.229 116.176 313.955 114.452C314.242 114.164 314.818 113.877 315.389 113.877C316.252 113.877 316.824 114.452 316.824 115.313V119.337C316.824 120.774 316.54 122.212 316.54 123.361C316.252 126.234 315.965 128.821 315.389 131.407C313.955 137.155 311.941 143.19 309.355 148.651C332.344 156.697 351.888 170.205 368.555 188.883L322.002 234.29C302.457 213.024 277.455 202.391 247.567 202.391C221.416 202.391 200.148 211.3 183.481 228.542C174.573 237.739 167.962 248.084 163.94 259.58H188.654V283.434H158.765C158.479 286.019 158.479 288.606 158.479 291.192C158.479 293.204 158.479 294.928 158.765 296.94H188.654V320.793H162.789C166.813 333.726 173.71 344.934 183.769 354.704C200.724 371.373 223.426 379.994 251.591 379.994C277.742 379.994 296.998 375.109 309.068 365.625V321.942H251.303V259.868H373.729Z" fill="white"/>
</svg>
